imgs/face.svg

<svg width="18" height="18" viewBox="0 0 18 18" fill="none" xmlns="http://www.w3.org/2000/svg">
<g clip-path="url(#clip0_1_401)">
<path d="M18 9C18 4.029 13.971 0 9 0C4.029 0 0 4.029 0 9C0 13.4929 3.29062 17.2162 7.59375 17.8912V11.601H5.3085V9H7.59375V7.017C7.59375 4.76175 8.93662 3.51562 10.9935 3.51562C11.9779 3.51562 13.008 3.6915 13.008 3.6915V5.90625H11.8721C10.7546 5.90625 10.4062 6.60075 10.4062 7.3125V9H12.9022L12.5033 11.6017H10.4062V17.8909C14.7094 17.2162 18 13.4929 18 9Z" fill="#1877F2"/>
<path d="M12.5034 11.6017L12.9024 9H10.4064V7.3125C10.4064 6.60075 10.7544 5.90625 11.8726 5.90625H13.0078V3.6915C13.0078 3.6915 11.978 3.51562 10.9936 3.51562C8.93676 3.51562 7.59388 4.76175 7.59388 7.017V9H5.30863V11.6017H7.59388V17.8909C8.05251 17.9633 8.52201 18 9.00013 18C9.47826 18 9.94776 17.9632 10.4064 17.8912V11.601H12.5034V11.6017Z" fill="white"/>
</g>
<defs>
<clipPath id="clip0_1_401">
<rect width="18" height="18" fill="white"/>
</clipPath>
</defs>
</svg>

<svg xmlns="http://www.w3.org/2000/svg" width="18" height="18" fill="none" xmlns:v="https://vecta.io/nano"><g clip-path="url(#A)"><path d="M18 9A9 9 0 1 0 0 9c0 4.493 3.291 8.216 7.594 8.891v-6.29H5.309V9h2.285V7.017c0-2.255 1.343-3.501 3.4-3.501.984 0 2.015.176 2.015.176v2.215h-1.136c-1.117 0-1.466.694-1.466 1.406V9h2.496l-.399 2.602h-2.097v6.289C14.709 17.216 18 13.493 18 9z" fill="#1877f2"/><path d="M12.503 11.602L12.902 9h-2.496V7.313c0-.712.348-1.406 1.466-1.406h1.135V3.692s-1.03-.176-2.014-.176c-2.057 0-3.4 1.246-3.4 3.501V9H5.309v2.602h2.285v6.289c.459.072.928.109 1.406.109a9.06 9.06 0 0 0 1.406-.109v-6.29h2.097v.001z" fill="#fff"/></g><defs><clipPath id="A"><path fill="#fff" d="M0 0h18v18H0z"/></clipPath></defs></svg>
